symbols/web/king_bed/materialsymbolsrounded/king_bed_wght600gradN25_40px.svg

<svg xmlns="http://www.w3.org/2000/svg" height="40" width="40"><path d="M2.958 28.833v-9.166q0-1.209.729-2.125.73-.917 1.896-1.167h.834v-4.792q0-1.458 1.041-2.521Q8.5 8 9.958 8H30q1.458 0 2.521 1.062 1.062 1.063 1.062 2.521v4.792h.834q1.125.25 1.895 1.146.771.896.771 2.062v9.25h-2.166l-.584 2.5q-.125.459-.521.834-.395.375-.895.375-.584 0-.959-.354-.375-.355-.5-.896l-.583-2.459H9.167l-.625 2.5q-.125.459-.521.834-.396.375-.896.375-.583 0-.937-.354-.355-.355-.521-.896l-.584-2.459Zm18.375-11.875H30v-5.375h-8.667Zm-11.375 0h8.75v-5.375h-8.75ZM6.5 25.292h27v-5.709h-27Zm27 0h-27 27Z"/></svg>

<svg xmlns="http://www.w3.org/2000/svg" height="40" width="40"><path d="M2.958 28.833V19.667Q2.958 18.458 3.687 17.542Q4.417 16.625 5.583 16.375H6.417V11.583Q6.417 10.125 7.458 9.062Q8.5 8 9.958 8H30Q31.458 8 32.521 9.062Q33.583 10.125 33.583 11.583V16.375H34.417Q35.542 16.625 36.312 17.521Q37.083 18.417 37.083 19.583V28.833H34.917L34.333 31.333Q34.208 31.792 33.812 32.167Q33.417 32.542 32.917 32.542Q32.333 32.542 31.958 32.188Q31.583 31.833 31.458 31.292L30.875 28.833H9.167L8.542 31.333Q8.417 31.792 8.021 32.167Q7.625 32.542 7.125 32.542Q6.542 32.542 6.188 32.188Q5.833 31.833 5.667 31.292L5.083 28.833ZM21.333 16.958H30V11.583Q30 11.583 30 11.583Q30 11.583 30 11.583H21.333ZM9.958 16.958H18.708V11.583H9.958Q9.958 11.583 9.958 11.583Q9.958 11.583 9.958 11.583ZM6.5 25.292H33.5V19.583Q33.5 19.583 33.5 19.583Q33.5 19.583 33.5 19.583H6.5Q6.5 19.583 6.5 19.583Q6.5 19.583 6.5 19.583ZM33.5 25.292H6.5Q6.5 25.292 6.5 25.292Q6.5 25.292 6.5 25.292H33.5Q33.5 25.292 33.5 25.292Q33.5 25.292 33.5 25.292Z"/></svg>
